X: 140052
T: The BEER DRINKER
Q: "Irish Jig."
R: Jig.
%R: jig
B: James Kerr "Merry Melodies" v.1 p.40 s.0 #52
Z: 2016 John Chambers <jc:trillian.mit.edu>
M: 6/8
L: 1/8
K: D
vF/E/ |\
DEF FEF | AFF uF2uE | DEF FEF | AFE uE2uF |\
DEF FEF | AFA  d2d  | cBA BAF | AFE E2  ::\
uf |\
ecA ABA | ecA uA2uf | ecA Ace | fdB B2f ||
ecA fdB | ecA a^gf  | ecA BAF | AFE D2  ::\
ud |\
dFF FEF | AFF F2ud  | dFF FEF | AFE E2ud |\
dFF FEF | AFA d2ud  | cBA BAF | AFE E2  :|

% Page 41 has 10 unnumbered tunes. It seems to be a collection
% of assorted, unclassified tunes with no particular pattern.
% These tunes are numbered 001-010 to keep the book's order.

%%sep 1 1 500
%%sep 1 1 500

